X: 280
T:Palestine Song
T:Nu alrest lebe ich mir werde
C:Walther von der Vogelweide, 1204
N:a bloodthirsty recruiting song for the Fourth Crusade, which
N:turned into a looting expedition like the war on Iraq - Walther
N:went on the crusade and it seems he later regretted writing it.
M:C
L:1/8
Q:1/4=80
K:DDor
A|D2 D2 F2 F2      |D2      D/E/F/E/     D2 DC |
  E2 G2 A2 A/G/F   |E2    (3D/C/D/   E/F/E HD2:|
A|A2 c2 c2 AG      |A2      cB           A3  z |
  A2 cB A2 A/G/F/E/|F2      G/F/E/D/     C3  z |
  D2 A2 A2 GF      |EF/E/ (3D/C/D/   E/F/E HD2|]

This is a mediaeval piece in the style of a French religious song, and
perhaps composed by a Frenchman; it's one of the oldest pieces of music
known from Scotland.  It's in the dorian mode, but the first three sections
are dorian/minor hexatonic, with progressively more dorian E's introduced
as the piece builds to a climax.

